images/logo11.svg

<?xml version="1.0" encoding="UTF-8" standalone="no"?>
<svg width="150px" height="60px" viewBox="0 0 150 60" version="1.1" xmlns="http://www.w3.org/2000/svg" xmlns:xlink="http://www.w3.org/1999/xlink" xmlns:sketch="http://www.bohemiancoding.com/sketch/ns">
    <!-- Generator: Sketch 3.3.3 (12081) - http://www.bohemiancoding.com/sketch -->
    <title>logo3</title>
    <desc>Created with Sketch.</desc>
    <defs></defs>
    <g id="Page-1" stroke="none" stroke-width="1" fill="none" fill-rule="evenodd" sketch:type="MSPage">
        <g id="logo3" sketch:type="MSArtboardGroup" fill="#FFFFFF">
            <g id="Group" sketch:type="MSLayerGroup" transform="translate(18.000000, 3.000000)">
                <path d="M61.9549548,27.9385333 C61.1518065,29.1448667 59.3895871,31.0508 56.9286581,30.745 C54.7714839,30.4751333 58.1216129,23.0736 61.4180516,21.2124 C60.534,22.4187333 59.4315097,25.6593333 62.7029419,26.0355333 C62.7397161,26.0392 62.7772258,26.0428667 62.814,26.0465333 C62.630129,26.6823333 62.359471,27.3298667 61.9549548,27.9385333 L61.9549548,27.9385333 Z M45.9390581,28.6696667 C43.8363097,28.6718667 44.800529,26.213 46.2663484,26.125 C47.4350323,26.0538667 47.8925032,27.0482667 47.7718839,28.3741333 C47.0842065,28.5838667 46.4605161,28.6704 45.9390581,28.6696667 L45.9390581,28.6696667 Z M63.2427871,22.0960667 C63.2111613,22.3446667 63.2155742,22.7597333 63.200129,23.276 C62.6926452,23.0398667 62.6249806,22.6072 63.2427871,22.0960667 L63.2427871,22.0960667 Z M8.21829677,45.2048667 C2.61538065,49.1597333 2.98827097,33.5309333 14.0881935,29.491 C15.2406968,29.0715333 16.3704,28.7312667 17.5324645,28.4416 C15.3495484,35.4412667 12.1781419,42.4108667 8.21829677,45.2048667 L8.21829677,45.2048667 Z M79.8728129,27.9862 C80.4773806,24.7030667 82.9096258,18.5291333 84.1525935,17.9446667 C83.2052903,17.292 80.2449677,15.4814 78.1466323,19.8410667 C76.5006194,23.2606 75.3370839,26.5129333 74.9597806,29.1918 C74.2632774,30.3783333 73.3843742,31.3140667 72.1759742,31.4922667 C69.2112387,31.9300667 71.2294065,19.7508667 77.8767097,19.1759333 C76.9573548,16.9854667 71.7420387,17.4687333 68.3889677,22.2024 C67.5571355,22.6981333 66.7363355,23.0296 65.9890839,23.2290667 C66.0435097,22.6035333 66.006,22.0154 65.847871,21.4903333 C65.3521548,19.8447333 63.5818452,20.1828 62.5573161,20.5194 C62.0123226,19.965 60.9738194,19.3138 60.3817548,19.2617333 C57.4045161,18.9948 54.2816516,21.8606667 52.4907484,25.1936667 C51.8111613,25.9424 51.1234839,26.5444667 50.4519871,27.0226 C50.9359355,23.7387333 49.9084645,20.4306667 45.486,22.0938667 C41.6747226,23.5260667 39.0188903,32.0312667 44.7799355,31.5128 C45.5065935,31.4468 46.1964774,31.3243333 46.8495871,31.1556667 C46.7958968,31.2495333 46.741471,31.3441333 46.6848387,31.4372667 C44.8284774,34.4424667 42.5036129,36.0352667 41.0966323,36.2164 C39.6911226,36.3968 37.4420129,36.5016667 38.2466323,31.2304667 C38.5820129,29.0385333 40.1427097,25.9299333 41.4349548,23.9536 C41.6357419,23.6470667 41.654129,23.2672 41.4820258,22.9687333 C41.3091871,22.671 40.9752774,22.5045333 40.6170968,22.5382667 C39.4793032,22.6446 38.3312129,22.7531333 37.1787097,22.8660667 C36.0622452,22.9753333 34.9406323,23.0904667 33.8197548,23.2122 C35.3149935,19.0952667 37.0617677,14.3469333 37.3692,13.442 C38.3863742,10.4441333 38.9968258,2.71406667 31.8332129,5.6408 C33.5814581,8.17153333 30.4306452,17.6652667 29.1030968,22.2992 C28.9729161,22.7553333 28.8118452,23.276 28.6287097,23.8465333 C26.7980903,24.0995333 24.990271,24.387 23.2265806,24.7199333 C23.7311226,22.9152 24.4195355,20.5304 25.5999871,16.6694 C27.5725548,10.2131333 23.8399742,8.6482 20.6288516,10.0899333 C21.430529,10.3385333 20.5523613,17.7452 18.3076645,25.8126 C9.39874839,28.1453333 2.40209032,32.1852667 0.792851613,39.9835333 C-1.44816774,50.8566667 13.9315355,54.8709333 21.1606065,31.8875333 C21.7438452,30.03 22.1012903,28.7848 22.4587355,27.4970667 C24.0157548,27.2653333 25.7154581,27.0548667 27.6438968,26.8246 C25.8640258,32.1280667 23.4832645,39.1262667 23.9297032,41.5866 C24.4371871,44.3835333 26.4700645,46.4024 31.4375226,44.2566667 C29.2840258,42.5157333 30.7520516,31.9183333 31.9656,28.3990667 C32.1634452,27.8241333 32.4296903,27.0739333 32.7371226,26.2159333 C33.6711871,26.1008 34.6537935,25.9768667 35.6878839,25.8434 C34.6824774,27.3474667 34.2036774,28.9622667 33.560129,30.7692 C32.1752129,34.661 32.4399871,40.2805333 37.8457935,40.6244667 C42.8573806,40.942 47.7785032,34.0765333 49.5370452,30.1246 C50.2644387,29.7476667 50.9300516,29.3179333 51.5360903,28.8596 C51.5971355,30.4861333 52.3002581,31.9447333 53.4329032,32.8746 C52.2855484,33.6798 50.8976903,34.6082 50.1953032,35.4251333 C49.4524645,36.2875333 49.5789677,37.2599333 50.5983484,37.7234 C51.6162581,38.1876 55.9232516,38.9414667 57.3920129,39.4665333 C62.8037032,41.3937333 59.7102581,46.9091333 57.1478323,49.5102667 C50.7550065,55.9988 43.2030581,49.7295333 51.7457032,42.889 C51.8413161,43.2226667 51.0778839,44.2258667 50.5270065,44.8308667 C52.3377677,43.7888 52.7650839,42.7496667 52.3443871,42.1124 C51.6272903,41.0263333 49.8150581,41.3658667 48.9221806,41.679 C47.7593806,42.086 46.5480387,42.9638 45.7941677,44.6886 C43.5708,49.7698667 47.2974968,56.1242 54.3713806,54.6472667 C62.929471,52.8623333 72.4937032,37.8187333 54.4522839,34.8817333 C54.7913419,34.6148 55.2627871,34.2312667 55.6967226,33.8748667 C57.2169677,34.0978 59.0350839,33.6130667 60.9488129,32.0752667 C62.5624645,30.7787333 64.3923484,28.2612 65.3499484,25.7891333 C65.8191871,25.6498 66.300929,25.4569333 66.7856129,25.1980667 C65.0432516,29.5709333 65.711071,33.5177333 67.5519871,35.0929333 C69.1957935,36.4994667 72.6356516,35.8966667 74.8987355,32.1933333 C75.3451742,36.8118667 77.4265935,39.2824667 80.7620129,39.6997333 C83.0986452,39.9923333 84.5703484,38.6107333 84.5159226,38.1817333 C79.5058065,38.7977333 78.5077548,35.3914 79.8728129,27.9862 L79.8728129,27.9862 Z" id="Fill-10" sketch:type="MSShapeGroup"></path>
                <path d="M88.5824129,31.4827333 C87.4247613,34.1704 84.1430323,34.4593333 84.0864,33.1606 C84.0547742,32.4456 84.8954323,31.7210667 86.2134194,30.9767333 C87.0430452,30.5081333 87.8910581,30.0006667 88.7633419,29.4308667 C88.9273548,30.1224 88.8685161,30.8168667 88.5824129,31.4827333 L88.5824129,31.4827333 Z M109.967342,21.2556667 C111.079394,18.0150667 112.847497,13.8761333 109.609161,13.7778667 C107.179123,13.7038 104.574039,16.0717333 102.529394,18.2658667 C103.099394,16.5968 103.776039,14.6967333 105.1308,10.7514 C106.846684,5.75666667 109.323058,-1.66686667 100.108916,0.3542 C101.74169,1.94626667 100.681123,9.28693333 99.2741419,14.0668 C98.8674194,15.4498667 98.448929,16.9370667 98.0451484,18.4096 C95.7835355,21.362 93.7388903,23.1887333 91.2419226,24.9934667 C90.4049419,23.8054667 89.5738452,22.8932 89.3267226,22.5265333 C87.4313806,19.7098 90.1107484,17.7496 92.6422839,18.1331333 C95.6695355,18.5914667 91.8589935,21.3744667 90.9138968,21.7323333 C91.4368258,22.0916667 92.5032774,22.4590667 93.8823097,21.5057333 C95.259871,20.5546 97.6693161,16.885 92.5724129,16.0900667 C86.3288903,15.1154667 80.5921161,21.9098 86.6981032,26.587 C87.0577548,26.8627333 87.3725419,27.1487333 87.6439355,27.4435333 C86.7488516,28.0346 85.7897806,28.666 84.7468645,29.3678 C82.9155097,30.5983333 81.4320387,32.1148667 81.3982065,33.3534667 C81.2444903,38.8358667 92.4951871,35.0885333 93.2093419,30.7134667 C93.4218968,29.4132667 92.9916387,28.0397333 92.3458839,26.7901333 C93.8197935,25.5684 95.3628387,24.1127333 96.9889935,22.3270667 C96.4373806,24.4060667 95.9718194,26.1946667 95.6864516,27.2565333 C95.0451097,29.6391333 94.8685935,33.9599333 100.577419,32.1075333 C99.9184258,29.403 100.476658,24.7346 101.46,21.5262667 C103.236929,19.4912667 105.105794,17.8185333 105.623574,18.1272667 C106.253148,18.5034667 105.795677,20.3089333 105.173458,21.8885333 C103.068503,27.2338 104.422529,34.5590667 110.157832,35.2777333 C112.493729,35.5703333 113.966168,34.1887333 113.910271,33.759 C107.029819,34.6052667 107.595406,27.8542 109.967342,21.2556667 L109.967342,21.2556667 Z" id="Fill-11" sketch:type="MSShapeGroup"></path>
                <path d="M69.8797935,49.0761333 C70.2578323,49.2924667 70.8263613,49.4816667 71.4228387,49.4816667 C72.1708258,49.4816667 72.5878452,49.1326 72.5878452,48.6126667 C72.5878452,48.1316 72.2657032,47.8485333 71.4515226,47.5552 C70.4005161,47.1782667 69.7282839,46.6202 69.7282839,45.705 C69.7282839,44.6658667 70.5990968,43.8731333 71.9818065,43.8731333 C72.6731613,43.8731333 73.1843226,44.0242 73.5160258,44.1936 L73.232129,45.1286 C73.0048645,45.0061333 72.5598968,44.8264667 71.9626839,44.8264667 C71.2242581,44.8264667 70.9021161,45.2232 70.9021161,45.5913333 C70.9021161,46.0819333 71.271329,46.3092667 72.1237548,46.6392667 C73.232129,47.0550667 73.7719742,47.6116667 73.7719742,48.5276 C73.7719742,49.5476667 72.9953032,50.4357333 71.3470839,50.4357333 C70.6748516,50.4357333 69.9739355,50.2465333 69.6238452,50.039 L69.8797935,49.0761333" id="Fill-12" sketch:type="MSShapeGroup"></path>
                <path d="M77.9377548,44.9496667 L76.1196387,44.9496667 L76.1196387,43.9765333 L80.94,43.9765333 L80.94,44.9496667 L79.1027613,44.9496667 L79.1027613,50.3411333 L77.9377548,50.3411333 L77.9377548,44.9496667" id="Fill-13" sketch:type="MSShapeGroup"></path>
                <path d="M84.7365677,43.9765333 L84.7365677,47.6872 C84.7365677,48.9338667 85.2572903,49.5102667 86.0435226,49.5102667 C86.8863871,49.5102667 87.3879871,48.9338667 87.3879871,47.6872 L87.3879871,43.9765333 L88.5529935,43.9765333 L88.5529935,47.6116667 C88.5529935,49.5762667 87.5394968,50.4445333 86.0060129,50.4445333 C84.5284258,50.4445333 83.5715613,49.6232 83.5715613,47.6219333 L83.5715613,43.9765333 L84.7365677,43.9765333" id="Fill-14" sketch:type="MSShapeGroup"></path>
                <path d="M92.9467742,49.4538 C93.1071097,49.4816667 93.3534968,49.4816667 93.5903226,49.4816667 C95.1061548,49.4904667 96.0049161,48.6603333 96.0049161,47.0455333 C96.0144774,45.639 95.2002968,44.836 93.7418323,44.836 C93.3726194,44.836 93.1071097,44.8646 92.9467742,44.902 L92.9467742,49.4538 L92.9467742,49.4538 Z M91.7817677,44.0616 C92.292929,43.9765333 92.9467742,43.9296 93.6373935,43.9296 C94.8310839,43.9296 95.6548258,44.1745333 96.2417419,44.6658667 C96.8573419,45.1667333 97.2368516,45.9220667 97.2368516,47.0074 C97.2368516,48.1411333 96.8477806,48.9910667 96.2417419,49.5381333 C95.6077548,50.1145333 94.5942581,50.4071333 93.3534968,50.4071333 C92.6717032,50.4071333 92.1605419,50.3697333 91.7817677,50.3220667 L91.7817677,44.0616 L91.7817677,44.0616 Z" id="Fill-15" sketch:type="MSShapeGroup"></path>
                <path d="M100.142748,43.9765333 L101.307755,43.9765333 L101.307755,50.3411333 L100.142748,50.3411333 L100.142748,43.9765333 Z" id="Fill-16" sketch:type="MSShapeGroup"></path>
                <path d="M105.436026,47.1870667 C105.436026,48.4806667 106.089871,49.5102667 107.207071,49.5102667 C108.333832,49.5102667 108.968555,48.4711333 108.968555,47.1394 C108.968555,45.9411333 108.372077,44.8074 107.207071,44.8074 C106.051626,44.8074 105.436026,45.8744 105.436026,47.1870667 L105.436026,47.1870667 Z M110.199755,47.0924667 C110.199755,49.2272 108.902361,50.4445333 107.140877,50.4445333 C105.341884,50.4445333 104.204826,49.0761333 104.204826,47.2061333 C104.204826,45.2518 105.436026,43.8731333 107.235755,43.8731333 C109.100942,43.8731333 110.199755,45.2796667 110.199755,47.0924667 L110.199755,47.0924667 Z" id="Fill-17" sketch:type="MSShapeGroup"></path>
            </g>
        </g>
    </g>
</svg>

<svg width="150" height="60" xmlns="http://www.w3.org/2000/svg"><g id="Page-1" stroke="none" stroke-width="1" fill="none" fill-rule="evenodd"><g id="logo3" fill="#FFF"><g id="Group" transform="translate(18 3)"><path d="M61.955 27.939c-.803 1.206-2.565 3.112-5.026 2.806-2.158-.27 1.193-7.671 4.49-9.533-.885 1.207-1.987 4.447 1.284 4.824l.111.01a6.82 6.82 0 01-.859 1.893zm-16.016.73c-2.103.003-1.138-2.456.327-2.544 1.169-.071 1.627.923 1.506 2.25a6.33 6.33 0 01-1.833.295zm17.304-6.573c-.032.249-.027.664-.043 1.18-.507-.236-.575-.669.043-1.18zM8.218 45.205c-5.603 3.955-5.23-11.674 5.87-15.714 1.153-.42 2.282-.76 3.444-1.05-2.182 7-5.354 13.97-9.314 16.764zm71.655-17.219c.604-3.283 3.037-9.457 4.28-10.041-.948-.653-3.908-2.464-6.006 1.896-1.646 3.42-2.81 6.672-3.187 9.35-.697 1.187-1.576 2.123-2.784 2.301-2.965.438-.947-11.741 5.7-12.316-.919-2.19-6.134-1.707-9.487 3.026a9.513 9.513 0 01-2.4 1.027c.055-.625.017-1.214-.141-1.739-.496-1.645-2.266-1.307-3.29-.97-.546-.555-1.584-1.206-2.176-1.258-2.977-.267-6.1 2.599-7.891 5.932a12.76 12.76 0 01-2.039 1.829c.484-3.284-.544-6.592-4.966-4.93-3.811 1.433-6.467 9.938-.706 9.42a12.95 12.95 0 002.07-.357c-.054.094-.109.188-.165.281-1.857 3.005-4.181 4.598-5.588 4.78-1.406.18-3.655.285-2.85-4.987.335-2.191 1.896-5.3 3.188-7.276a.94.94 0 00.047-.985.891.891 0 00-.865-.43c-1.138.106-2.286.214-3.438.327-1.117.11-2.238.224-3.36.346 1.496-4.117 3.243-8.865 3.55-9.77 1.017-2.998 1.628-10.728-5.536-7.801 1.748 2.53-1.402 12.024-2.73 16.658a51.2 51.2 0 01-.474 1.548c-1.83.253-3.639.54-5.402.873.504-1.805 1.193-4.19 2.373-8.05 1.973-6.457-1.76-8.022-4.971-6.58.802.249-.077 7.655-2.321 15.723-8.91 2.332-15.906 6.372-17.515 14.17-2.241 10.874 13.139 14.888 20.368-8.095.583-1.858.94-3.103 1.298-4.39a184.62 184.62 0 015.185-.673c-1.78 5.303-4.16 12.301-3.714 14.762.507 2.797 2.54 4.815 7.508 2.67-2.154-1.741-.686-12.339.528-15.858.197-.575.464-1.325.771-2.183.934-.115 1.917-.24 2.95-.373-1.005 1.504-1.483 3.12-2.127 4.926-1.385 3.892-1.12 9.512 4.286 9.855 5.011.318 9.933-6.547 11.691-10.5a13.975 13.975 0 002-1.264c.06 1.626.763 3.085 1.896 4.015-1.147.805-2.535 1.733-3.238 2.55-.743.863-.616 1.835.403 2.298 1.018.465 5.325 1.218 6.794 1.744 5.412 1.927 2.318 7.442-.244 10.043-6.393 6.489-13.945.22-5.402-6.621.095.334-.668 1.337-1.219 1.942 1.81-1.042 2.238-2.081 1.817-2.719-.717-1.086-2.529-.746-3.422-.433-1.163.407-2.374 1.285-3.128 3.01-2.223 5.08 1.503 11.435 8.577 9.958 8.558-1.785 18.123-16.828.081-19.765.34-.267.81-.65 1.245-1.007 1.52.223 3.338-.262 5.252-1.8 1.613-1.296 3.443-3.814 4.4-6.286.47-.14.952-.332 1.437-.59-1.743 4.372-1.075 8.319.766 9.894 1.644 1.406 5.084.804 7.347-2.9.446 4.619 2.528 7.09 5.863 7.507 2.337.292 3.808-1.09 3.754-1.518-5.01.616-6.008-2.79-4.643-10.196z" id="Fill-10"/><path d="M88.582 31.483c-1.157 2.687-4.439 2.976-4.496 1.678-.031-.715.81-1.44 2.127-2.184a45.88 45.88 0 002.55-1.546 3.223 3.223 0 01-.18 2.052zm21.385-10.227c1.112-3.24 2.88-7.38-.358-7.478-2.43-.074-5.035 2.294-7.08 4.488.57-1.67 1.247-3.57 2.602-7.515 1.716-4.994 4.192-12.418-5.022-10.397 1.633 1.592.572 8.933-.835 13.713-.407 1.383-.825 2.87-1.229 4.343-2.261 2.952-4.306 4.779-6.803 6.583-.837-1.188-1.668-2.1-1.915-2.466-1.896-2.817.784-4.777 3.315-4.394 3.028.458-.783 3.241-1.728 3.6.523.359 1.59.726 2.968-.227 1.378-.951 3.787-4.621-1.31-5.416-6.243-.975-11.98 5.82-5.874 10.497.36.276.675.562.946.857-.895.59-1.854 1.222-2.897 1.924-1.831 1.23-3.315 2.747-3.349 3.985-.154 5.483 11.097 1.736 11.811-2.64.213-1.3-.217-2.673-.863-3.923a45.824 45.824 0 004.643-4.463c-.552 2.08-1.017 3.868-1.303 4.93-.64 2.382-.817 6.703 4.891 4.85-.659-2.704-.1-7.372.883-10.58 1.777-2.036 3.646-3.708 4.164-3.4.63.376.172 2.182-.45 3.762-2.105 5.345-.751 12.67 4.984 13.389 2.336.292 3.808-1.09 3.752-1.519-6.88.846-6.315-5.905-3.943-12.503z" id="Fill-11"/><path d="M69.88 49.076a3.24 3.24 0 001.543.406c.748 0 1.165-.35 1.165-.87 0-.48-.322-.763-1.136-1.057-1.051-.377-1.724-.935-1.724-1.85 0-1.04.871-1.832 2.254-1.832.691 0 1.202.151 1.534.32l-.284.936a2.712 2.712 0 00-1.27-.303c-.738 0-1.06.397-1.06.765 0 .49.37.718 1.222 1.048 1.108.416 1.648.973 1.648 1.889 0 1.02-.777 1.908-2.425 1.908-.672 0-1.373-.19-1.723-.397l.256-.963" id="Fill-12"/><path d="M77.938 44.95H76.12v-.973h4.82v.973h-1.837v5.391h-1.165V44.95" id="Fill-13"/><path d="M84.737 43.977v3.71c0 1.247.52 1.823 1.307 1.823.842 0 1.344-.576 1.344-1.823v-3.71h1.165v3.635c0 1.964-1.014 2.833-2.547 2.833-1.478 0-2.434-.822-2.434-2.823v-3.645h1.165" id="Fill-14"/><path d="M92.947 49.454c.16.028.406.028.643.028 1.516.008 2.415-.822 2.415-2.436.01-1.407-.805-2.21-2.263-2.21-.37 0-.635.029-.795.066v4.552zm-1.165-5.392a11.782 11.782 0 011.855-.132c1.194 0 2.018.245 2.605.736.615.5.995 1.256.995 2.341 0 1.134-.39 1.984-.995 2.531-.634.577-1.648.87-2.889.87-.681 0-1.192-.038-1.571-.086v-6.26z" id="Fill-15"/><path d="M100.143 43.977h1.165v6.364h-1.165v-6.364z" id="Fill-16"/><path d="M105.436 47.187c0 1.294.654 2.323 1.771 2.323 1.127 0 1.762-1.039 1.762-2.37 0-1.199-.597-2.333-1.762-2.333-1.155 0-1.771 1.067-1.771 2.38zm4.764-.095c0 2.135-1.298 3.353-3.06 3.353-1.798 0-2.935-1.369-2.935-3.239 0-1.954 1.231-3.333 3.03-3.333 1.866 0 2.965 1.407 2.965 3.22z" id="Fill-17"/></g></g></g></svg>
